X: 1
T: Nagelschmied (Bb)
R: zwiefacher
M: 3/4
L: 1/4
K: Bb
F \
| "Bb"B>BB | "F7"Acf | A>AA | "Bb"Bdf \
| "Bb"B>BB | "F7"Acf | A/A/AA | "Bb"BzF |
| "Bb"B>BB | "F7"Acf | A/A/AA | "Bb"Bz  \
|:["N times" F |[M:2/4] "Bb"BF | dB |[M:3/4]"F7"fz/A/A | "Bb"Bz :|
